!!!COM: (Joseph) Maurice Ravel
!!!OTL: [T277_Rav-w36p49m1-13]
**kern	**kern	**dynam
*grp:A	*grp:B	*
*part1	*part1	*part1
*staff2	*staff1	*
*I"Piano	*	*
*I'Pno.	*	*
*clefF4	*clefG2	*
*k[f#c#g#d#]	*k[f#c#g#d#]	*
*E:	*E:	*
*M3/4	*M3/4	*
=1	=1	=1
!!LO:TX:t=Adagio assai. [eighth]=76
*ped	*	*
8ryy	4%3r	4ryy
8ryy	.	.
8ryy	.	.
8ryy	.	.
8ryy	.	.
8ryy	.	.
=2	=2	=2
!	!LO:TX:b:i:t=espressivo	!
8ryy	(4g#	.
8ryy	.	.
8ryy	2a	.
8ryy	.	.
8ryy	.	.
8ryy	.	.
=3	=3	=3
8ryy	4g#	.
8ryy	.	.
8ryy	4f#	.
8ryy	.	.
8ryy	4e	.
8ryy	.	.
=4	=4	=4
8ryy	[4b	.
8ryy	.	.
8ryy	8bL]	.
8ryy	16aL	.
.	16bJJ	.
8ryy	16cc#LL	.
.	[16bJ	.
8ryy	8bJ_	.
=5	=5	=5
8ryy	2b_	.
8ryy	.	.
8ryy	.	.
8ryy	.	.
8ryy	8bL])	.
8ryy	([8bJ	.
=6	=6	=6
8ryy	4b]	.
8ryy	.	.
8ryy	4cc#	.
8ryy	.	.
8ryy	4b	.
8ryy	.	.
!!linebreak:original
=7	=7	=7
8ryy	[2g#	.
8ryy	.	.
8ryy	.	.
8ryy	.	.
8ryy	16g#LL]	.
.	16f#	.
8ryy	16e	.
.	16f#JJ	.
=8	=8	=8
8ryy	16g#LL	.
.	[16f#J	.
8ryy	8f#J_	.
8ryy	4f#_	.
8ryy	.	.
8ryy	8f#L])	.
8ryy	([8f#J	.
=9	=9	=9
8ryy	8f#L]	.
8ryy	8g#J	4ryy
8ryy	8bL	.
8ryy	8g#J	.
8ryy	8f#L	.
8ryy	8d#J)	.
=10	=10	=10
8ryy	([4d#	.
8ryy	.	.
8ryy	8d#L]	.
8ryy	8eJ	.
8ryy	8BL	.
8ryy	8d#J	.
=11	=11	=11
8ryy	[4c#	.
8ryy	.	.
8ryy	16c#LL]	4ryy
.	16e	.
8ryy	16f#	.
.	16aJJ)	.
8ryy	([4cc#i	4ryy
8ryy	.	.
=12	=12	=12
8ryy	4cc#]	4ryy
8ryy	.	.
8ryy	4a	.
8ryy	.	.
8ryy	4g#	.
8ryy	.	.
=13	=13	=13
8ryy	[2f#	.
8ryy	.	.
8ryy	.	.
8ryy	.	.
8ryy	16f#LL]	.
.	16g#	.
8ryy	16f#	.
.	16g#JJ	.
=	=	=
*-	*-	*-
!!!system-decoration: [({(s1,s2)})]
!!!RDF**kern: i = marked note, color="hotpink", text="extra("
!!!EED:Jason Lee
!!!EEV:2021/10/26
